X: 13368
T: Flea, The
R: jig
M: 6/8
K: Dmajor
|:gec AGE|F3 A2d|c3 cBA|f2e def|
gec AGE|F3 A2d|cBA f2e|1 d2z def:|2 d2z ded||
|:c3 cBA|c3cBA|B3 BAG|B3 BAB|
c3 cBA|c3 cef|gec ABc|1 d2z ded:|2 d2 z4||

